X: 23580
T: Lights Out
R: waltz
M: 3/4
K: Amixolydian
B4 e2|e4 dc|B4 G2|A6|
B4 e2|e4 dc|B3c d2|e4 f2|
g3f e2|a4 e2|e3c A2|A3E GA|
B3c d2|c3d e2|B4 G2|A6:|
|:g3f e2|a6|B4 dc|A6|
g3f e2|a6|B3c d2|e4 f2|
g3f e2|a4 e2|e3c A2|A3E GA|
B3c d2|c3d e2|B4 G2|A6:|

